**kern	**silbe
*ICvox	*
*A:	*
*M4/4	*
*clefG2	*
r;	.
=1	=1
1r	.
=2	=2
1r	.
=3	=3
1r	.
=4	=4
1r	.
=5	=5
1r	.
=6	=6
1r	.
=7	=7
8r	.
8c#	You're
8c#	not
8c#	sure
8c#	what
8B	you
8B	want
8B	to
=8	=8
8B	do
8A	with
8A	your
8A	life,
8r	.
8c#	but
4c#	you
=9	=9
4c#	sure
8B	don't
8B	want
8A	me
8B	in
4c#	it.
=10	=10
1r	.
=11	=11
4r	.
8c#	Yeah,
8c#	you're
8c#	sure
8B	the
8B	life
8B	you're
=12	=12
8B	li-
8A	-ving
8A	with
8A	me
6r	.
6c#	can't
6c#	go
=13	=13
4c#	on
4B	one
8B	sin-
8A	-gle
8B	mi-
8c#	-nute.
=14	=14
1r	.
=15	=15
8r	.
8A	And
8e	there's
8e	a
8e	new
8d	one
8d	wait-
8d	-ing
=16	=16
8d	out-
8c#	-side
8c#	this
[8c#	door.
8c#]	_
8A	And
8e	now's
8e	the
=17	=17
4e	time
12A	to
12A	be-
12B	-gin
4c#	it.
4r	.
=18	=18
1r	.
=19	=19
4r	.
8r	.
8b	You
8b	found
8b	a
8cc#	new
[8dd	world
=20	=20
4dd]	_
8a	and
8a	you
8a	want
8a	to
8f#	taste
8e	it,
=21	=21
4r	.
8b	but
8b	that
8b	world
8b	can
8cc#	turn
[8dd	cold
=22	=22
8dd]	_
8r	.
16r	.
16a	and
8a	you
8dd	bet-
8cc#	-ter
8dd	face
[8ee	it.
=23	=23
4ee]	_
4r	.
8cc#	Who
8cc#	will
8cc#	you
[8cc#	run
=24	=24
8cc#]	_
8b	to
8b	when
8a	it
4b	all
4cc#	falls
=25	=25
4a	down?
4r	.
8a	Who's
8a	gon-
8a	-na
[8cc#	pick
=26	=26
8cc#]	_
8f#	your
8a	world
8a	up
6cc#	off
6f#	of
[6a	the
=27	=27
8a]	_
8a	ground?
4r	.
8cc#	Who's
8cc#	gon-
8cc#	-na
[8cc#	take
=28	=28
8cc#]	_
8b	a-
8b	-way
8a	the
4b	tears
4cc#	you
=29	=29
4a	cry?
4r	.
8a	Who's
8a	gon-
8a	-na
[8b	love
=30	=30
8b]	_
8f#	you
8a	ba-
8a	-by
8a	as
8cc#	good
[4a	as
=31	=31
8a]	_
4.a	I?
2r	.
=32	=32
1r	.
=33	=33
1r	.
=34	=34
1r	.
=35	=35
1r	.
=36	=36
1r	.
=37	=37
8r	.
8c#	You
8c#	won't
8c#	know
8c#	what
8B	it's
8B	like
8B	to
=38	=38
8B	live
8A	on
8A	your
8A	own.
4r	.
12c#	You've
12c#	al-
12c#	-ways
=39	=39
8c#	had
8B	me
8B	there
8A	be-
4B	-side
4c#	you.
=40	=40
1r	.
=41	=41
8r	.
8c#	You
8c#	think
8c#	it's
8c#	ea-
8B	-sy
8B	fin-
8B	-ding
=42	=42
8B	some-
8A	-one
8A	out
8A	there
8r	.
8c#	who's
8c#	gon-
8c#	-na
=43	=43
4e	care
12c#	as
12B	much
12A	as
4.B	I
[8A	do.
=44	=44
4A]	_
4r	.
2r	.
=45	=45
8r	.
8e	What's
8e	gon-
8e	-na
8e	hap-
8d	-pen
8d	ba-
8d	-by
=46	=46
8d	when
8c#	you
8c#	find
8c#	out
4r	.
8e	there's
8e	no
=47	=47
8e	one
8e	there
8A	to
4B	cry
4.c#	to?
=48	=48
1r	.
=49	=49
4r	.
8b	You
8b	can
8b	tell
8b	the
8cc#	whole
[8dd	world
=50	=50
4dd]	_
8a	how
8a	you're
8a	gon-
8a	-na
8f#	make
8e	it.
=51	=51
4r	.
8b	You
8b	can
8b	fol-
8b	-low
8cc#	you
8dd	heart,
=52	=52
8r	.
16a	what
16a	you
8dd	do
8a	when
8dd	some-
8cc#	-one
8dd	breaks
[8ee	it?
=53	=53
4ee]	_
4r	.
8cc#	Who
8cc#	will
8cc#	you
[8cc#	run
=54	=54
8cc#]	_
8b	to
8b	when
8a	it
4b	all
4cc#	falls
=55	=55
4a	down?
4r	.
8a	Who's
8a	gon-
8a	-na
[8cc#	pick
=56	=56
8cc#]	_
8f#	you
8a	world
8a	up
6cc#	off
6f#	of
[6a	the
=57	=57
8a]	_
8a	ground?
4r	.
8cc#	Who's
8cc#	gon-
8cc#	-na
[8cc#	take
=58	=58
8cc#]	_
8b	a-
8b	-way
8a	the
4b	tears
4cc#	you
=59	=59
4a	cry?
4r	.
8a	Who's
8a	gon-
8a	-na
[8b	love
=60	=60
8b]	_
8f#	you
8a	ba-
8a	-by
8a	as
8cc#	good
[4a	as
=61	=61
8a]	_
16a	I?
16f#	_
8e	_
8r	.
2r	.
=62	=62
1r	.
=63	=63
1r	.
=64	=64
1r	.
=65	=65
1r	.
=66	=66
1r	.
=67	=67
1r	.
=68	=68
1r	.
=69	=69
1r	.
=70	=70
1r	.
=71	=71
1r	.
=72	=72
1r	.
=73	=73
4r	.
8r	.
8b	You
8b	found
8b	a
8cc#	new
[8dd	world
=74	=74
4dd]	_
8a	and
8a	you
8a	want
8a	to
8f#	taste
8e	it,
=75	=75
4r	.
8b	but
8b	that
8b	world
8b	can
8cc#	turn
[8dd	cold
=76	=76
4dd]	_
8r	.
16a	and
16a	you
8dd	bet-
8cc#	-ter
8dd	face
[8ee	it.
=77	=77
1ee]	_
=78	=78
2r	.
8cc#	Who
8cc#	will
8cc#	you
[8cc#	run
=79	=79
8cc#]	_
8b	to
8b	when
8a	it
4b	all
4cc#	falls
=80	=80
4a	down?
4r	.
8a	Who's
8a	gon-
8a	-na
[8cc#	pick
=81	=81
8cc#]	_
8f#	you
8a	world
8a	up
6cc#	off
6f#	of
[6a	the
=82	=82
8a]	_
8a	ground?
8f#	_
8r	.
8cc#	Who's
8cc#	gon-
8cc#	-na
[8cc#	take
=83	=83
8cc#]	_
8b	a-
8b	-way
8a	the
4b	tears
4cc#	you
=84	=84
4a	cry?
4r	.
8a	Who's
8a	gon-
8a	-na
[8b	love
=85	=85
8b]	_
8f#	you
8a	ba-
8a	-by
8a	as
8cc#	good
[4a	as
=86	=86
8a]	_
4.a	I?
2r	.
=87	=87
1r	.
=88	=88
2r	.
8cc#	Who
8cc#	will
8cc#	you
[8cc#	run
=89	=89
8cc#]	_
8b	to
8b	when
8a	it
4b	all
4cc#	falls
=90	=90
4a	down?
4r	.
8a	Who's
8a	gon-
8a	-na
[8cc#	pick
=91	=91
8cc#]	_
8f#	you
8a	world
8a	up
6cc#	off
6f#	of
[6a	the
=92	=92
8a]	_
8a	ground?
8f#	_
8r	.
8cc#	Who's
8cc#	gon-
8cc#	-na
[8cc#	take
=93	=93
8cc#]	_
8b	a-
8b	-way
8a	the
4b	tears
4cc#	you
=94	=94
4a	cry?
4r	.
8a	Who's
8a	gon-
8a	-na
[8b	love
=95	=95
8b]	_
8f#	you
8a	ba-
8a	-by
8a	as
8cc#	good
[4a	as
=96	=96
8a]	_
4.a	I?
2r	.
=97	=97
1r	.
=98	=98
1r	.
=99	=99
1r	.
=100	=100
1r	.
=101	=101
1r	.
=102	=102
1r	.
=103	=103
1r	.
=104	=104
1r	.
=105	=105
1r	.
=106	=106
1r	.
=107	=107
1r	.
=108	=108
1r	.
=109	=109
1r	.
=110	=110
1r	.
=111	=111
1r	.
=112	=112
1r	.
=113	=113
1r	.
=114	=114
1r	.
=115	=115
1r	.
=116	=116
1r	.
=117	=117
1r	.
=118	=118
1r	.
=119	=119
1r	.
r;	.
r;	.
*-	*-
!!!ENC: Nathaniel Condit-Schultz